client/assets/images/footer/footer-logo.svg

<svg width="114" height="64" viewBox="0 0 114 64" fill="none" xmlns="http://www.w3.org/2000/svg">
<g id="footer_logo">
<g id="Group 11">
<path id="Path 51" fill-rule="evenodd" clip-rule="evenodd" d="M43.707 12.9392C43.707 14.1681 44.1885 15.3468 45.0455 16.2158C45.9025 17.0848 47.0649 17.573 48.2768 17.573C49.1807 17.573 50.0642 17.3013 50.8157 16.7921C51.5672 16.2829 52.1529 15.5592 52.4988 14.7125C52.8447 13.8657 52.9352 12.934 52.7589 12.0351C52.5825 11.1363 52.1473 10.3106 51.5082 9.66252C50.8691 9.01446 50.0548 8.57314 49.1684 8.39434C48.2819 8.21554 47.3631 8.3073 46.528 8.65803C45.693 9.00876 44.9793 9.60268 44.4772 10.3647C43.975 11.1268 43.707 12.0227 43.707 12.9392Z" fill="#8A15B3"/>
<path id="Path 52" fill-rule="evenodd" clip-rule="evenodd" d="M55.1836 2.60592C55.1836 3.1018 55.3778 3.57738 55.7236 3.92802C56.0694 4.27866 56.5384 4.47565 57.0274 4.47565C57.5165 4.47565 57.9855 4.27866 58.3313 3.92802C58.6771 3.57738 58.8714 3.1018 58.8714 2.60592C58.8714 2.11004 58.6771 1.63448 58.3313 1.28384C57.9855 0.933196 57.5165 0.736206 57.0274 0.736206C56.5384 0.736206 56.0694 0.933196 55.7236 1.28384C55.3778 1.63448 55.1836 2.11004 55.1836 2.60592Z" fill="#8A15B3"/>
<g id="Group 10">
<path id="Path 53" d="M61.2344 36.0139H62.8121C63.437 35.9803 64.0626 36.0615 64.659 36.2535C65.0324 36.408 65.3469 36.68 65.556 37.0296C65.782 37.4181 65.8954 37.8633 65.8829 38.3142C65.9011 38.8102 65.75 39.2974 65.4553 39.6938C65.1587 40.0679 64.7519 40.336 64.2942 40.4588C63.7783 40.5627 63.252 40.6045 62.7264 40.5831V43.9405H61.2384L61.2344 36.0139ZM62.7224 39.1126H63.1958C63.4569 39.126 63.7184 39.0988 63.9713 39.0318C64.111 38.9822 64.2312 38.8883 64.3141 38.7639C64.4002 38.6298 64.4437 38.4721 64.4387 38.3122C64.4474 38.1785 64.4191 38.045 64.3571 37.9266C64.2952 37.8083 64.202 37.7098 64.0879 37.6421C63.7898 37.5131 63.4652 37.4593 63.142 37.4855H62.7214L62.7224 39.1126Z" fill="white"/>
<path id="Path 54" d="M69.7171 36.0144H71.2261L74.2331 43.941H72.6873L72.0753 42.3078H68.8859L68.25 43.941H66.7031L69.7171 36.0144ZM70.4806 38.1156L69.4321 40.8373H71.5251L70.4806 38.1156Z" fill="white"/>
<path id="Path 55" d="M75.4883 36.0144H77.065C77.6889 35.9798 78.3138 36.0592 78.9099 36.2489C79.2782 36.4071 79.5877 36.6795 79.794 37.0271C80.0235 37.4155 80.1393 37.8621 80.1279 38.3147C80.1444 38.7789 80.0153 39.2364 79.7591 39.6215C79.478 39.9967 79.089 40.2743 78.6458 40.4159L80.4976 43.94H78.871L77.1139 40.5826H76.9773V43.94H75.4893L75.4883 36.0144ZM76.9763 39.1131H77.4428C77.7797 39.1435 78.1183 39.0781 78.4205 38.9241C78.5137 38.8509 78.5871 38.755 78.6338 38.6452C78.6805 38.5354 78.699 38.4155 78.6876 38.2965C78.6911 38.1359 78.6447 37.9782 78.5551 37.8458C78.4679 37.7187 78.3439 37.6223 78.2003 37.5698C77.934 37.4997 77.6587 37.4715 77.384 37.486H76.9763V39.1131Z" fill="white"/>
<path id="Path 56" d="M80.9297 36.0144H85.2503V37.5011H83.8201V43.94H82.3111V37.5011H80.9297V36.0144Z" fill="white"/>
<path id="Path 57" d="M61.3398 45.9433H62.9166C63.5405 45.9087 64.1653 45.9882 64.7615 46.1778C65.1298 46.336 65.4393 46.6084 65.6455 46.956C65.8754 47.3442 65.9916 47.7908 65.9804 48.2436C65.9968 48.7077 65.8677 49.1652 65.6116 49.5504C65.3306 49.9256 64.9416 50.2032 64.4983 50.3448L66.3502 53.8689H64.7236L62.9654 50.5115H62.8289V53.8689H61.3408L61.3398 45.9433ZM62.8279 49.042H63.2943C63.6313 49.0724 63.9698 49.007 64.2721 48.853C64.3651 48.7799 64.4384 48.6841 64.4851 48.5745C64.5318 48.4649 64.5504 48.3452 64.5392 48.2264C64.5426 48.0658 64.4962 47.9081 64.4067 47.7756C64.3195 47.6485 64.1955 47.5521 64.0518 47.4997C63.7855 47.4296 63.5102 47.4013 63.2355 47.4159H62.8279V49.042Z" fill="white"/>
<path id="Path 58" d="M67.5586 45.9434H71.8254V47.4199H69.0347V48.852H71.8254V50.3013H69.0347V52.3893H71.8254V53.871H67.5586V45.9434Z" fill="white"/>
<path id="Path 59" d="M77.3123 47.0193L76.21 48.0058C76.0915 47.7837 75.9224 47.5935 75.7168 47.4511C75.5112 47.3087 75.275 47.2182 75.0279 47.1871C74.8544 47.1797 74.6842 47.236 74.5485 47.3458C74.4926 47.3874 74.4469 47.4413 74.4146 47.5035C74.3823 47.5656 74.3643 47.6343 74.3621 47.7046C74.3638 47.8418 74.4108 47.9746 74.4957 48.0816C74.8343 48.4476 75.1991 48.7877 75.587 49.0993C76.1551 49.581 76.4993 49.8842 76.6196 50.0089C76.8831 50.2639 77.1003 50.564 77.2615 50.8952C77.3894 51.1858 77.4539 51.5008 77.4508 51.819C77.4591 52.12 77.404 52.4193 77.2894 52.697C77.1748 52.9748 77.0032 53.2246 76.7861 53.43C76.3131 53.8653 75.6899 54.0937 75.0518 54.0656C74.5368 54.0778 74.0301 53.9335 73.5966 53.6513C73.1366 53.3182 72.7706 52.8687 72.5352 52.3476L73.786 51.5825C74.1621 52.2832 74.594 52.6335 75.0817 52.6335C75.3165 52.641 75.5457 52.5604 75.7255 52.4072C75.8051 52.3456 75.8699 52.2667 75.9151 52.1762C75.9604 52.0857 75.9848 51.9861 75.9867 51.8847C75.9795 51.688 75.9095 51.4989 75.7874 51.346C75.5272 51.0411 75.2362 50.7647 74.9192 50.5213C74.3006 50.0541 73.7456 49.5059 73.2687 48.8911C73.0351 48.5554 72.9053 48.1568 72.896 47.746C72.8938 47.479 72.948 47.2145 73.0549 46.9705C73.1618 46.7264 73.319 46.5085 73.5159 46.3311C73.9292 45.9375 74.4791 45.7253 75.0458 45.7408C75.4337 45.7403 75.8159 45.8346 76.1601 46.0158C76.6031 46.2738 76.994 46.6142 77.3123 47.0193Z" fill="white"/>
<path id="Path 60" d="M78.8789 45.9434H83.1457V47.4199H80.355V48.852H83.1457V50.3013H80.355V52.3893H83.1457V53.871H78.8789V45.9434Z" fill="white"/>
<path id="Path 61" d="M86.9163 45.9434H88.4253L91.4313 53.87H89.8855L89.2745 52.2378H86.0851L85.4492 53.87H83.9023L86.9163 45.9434ZM87.6798 48.0446L86.6313 50.7663H88.7243L87.6798 48.0446Z" fill="white"/>
<path id="Path 62" d="M92.6836 45.9433H94.2603C94.8842 45.9087 95.5091 45.9882 96.1052 46.1778C96.4736 46.336 96.7831 46.6084 96.9893 46.956C97.2192 47.3442 97.3354 47.7908 97.3242 48.2436C97.3406 48.7077 97.2115 49.1652 96.9554 49.5504C96.6744 49.9256 96.2854 50.2032 95.8421 50.3448L97.6939 53.8689H96.0673L94.3101 50.5115H94.1736V53.8689H92.6855L92.6836 45.9433ZM94.1716 49.042H94.6381C94.975 49.0724 95.3135 49.0069 95.6158 48.853C95.7088 48.7799 95.7821 48.6841 95.8288 48.5745C95.8755 48.4649 95.8941 48.3452 95.8829 48.2264C95.8863 48.0658 95.84 47.9081 95.7504 47.7756C95.6632 47.6485 95.5392 47.5521 95.3956 47.4997C95.1293 47.4296 94.854 47.4013 94.5793 47.4159H94.1716V49.042Z" fill="white"/>
<path id="Path 63" d="M106.081 47.3347L105.041 48.3454C104.744 47.995 104.377 47.7124 103.965 47.5163C103.553 47.3201 103.104 47.2148 102.649 47.2074C102.299 47.2025 101.951 47.2688 101.627 47.4023C101.303 47.5358 101.009 47.7339 100.761 47.9848C100.514 48.2357 100.318 48.5343 100.187 48.8631C100.055 49.1918 99.9897 49.544 99.9945 49.8988C99.9853 50.39 100.102 50.8752 100.334 51.3066C100.558 51.7138 100.892 52.0485 101.295 52.2718C101.718 52.5077 102.193 52.6285 102.676 52.6225C103.083 52.6276 103.487 52.5438 103.86 52.3769C104.301 52.1513 104.699 51.8493 105.038 51.4845L106.046 52.5517C105.577 53.0461 105.022 53.449 104.41 53.7403C103.852 53.9699 103.254 54.0827 102.652 54.0718C102.102 54.0923 101.554 53.9989 101.041 53.7973C100.527 53.5957 100.06 53.2902 99.6676 52.8994C99.2817 52.5059 98.9796 52.0363 98.7799 51.5197C98.5801 51.003 98.4871 50.4503 98.5064 49.8957C98.4931 49.1579 98.6759 48.43 99.0357 47.7885C99.3984 47.1642 99.9222 46.6519 100.551 46.3069C101.198 45.936 101.93 45.743 102.674 45.747C103.321 45.7486 103.96 45.8916 104.548 46.1663C105.136 46.441 105.659 46.8408 106.08 47.3387L106.081 47.3347Z" fill="white"/>
<path id="Path 64" d="M107.379 45.9434H108.888V48.9339H111.497V45.9434H113.001V53.87H111.497V50.3943H108.888V53.87H107.379V45.9434Z" fill="white"/>
<path id="Path 65" d="M61.1328 55.8713H62.6099V63.7979H61.1328V55.8713Z" fill="white"/>
<path id="Path 66" d="M65.1094 55.8713H66.5366L69.8815 61.0873V55.8713H71.3696V63.7979H69.9383L66.5974 58.598V63.7979H65.1094V55.8713Z" fill="white"/>
<path id="Path 67" d="M78.069 56.9492L76.9667 57.9356C76.8483 57.7133 76.6793 57.523 76.4737 57.3804C76.268 57.2378 76.0318 57.1472 75.7846 57.116C75.6112 57.1084 75.4408 57.1647 75.3052 57.2746C75.2494 57.3162 75.2036 57.3701 75.1713 57.4323C75.139 57.4944 75.1211 57.5632 75.1188 57.6334C75.1205 57.7707 75.1675 57.9034 75.2524 58.0104C75.5927 58.3768 75.9591 58.7173 76.3487 59.0291C76.9168 59.5109 77.261 59.8141 77.3813 59.9387C77.6448 60.1937 77.8621 60.4938 78.0232 60.8251C78.151 61.1156 78.2156 61.4307 78.2126 61.7488C78.2208 62.0498 78.1657 62.3491 78.0511 62.6268C77.9365 62.9046 77.7649 63.1544 77.5477 63.3598C77.0747 63.7949 76.4516 64.0234 75.8135 63.9955C75.2985 64.0078 74.7917 63.8635 74.3584 63.5811C73.8982 63.2481 73.5322 62.7986 73.2969 62.2774L74.5477 61.5123C74.9238 62.213 75.3557 62.5634 75.8434 62.5634C76.0782 62.5707 76.3073 62.4901 76.4873 62.337C76.5668 62.2755 76.6315 62.1965 76.6767 62.106C76.7219 62.0156 76.7464 61.9159 76.7484 61.8145C76.7418 61.6177 76.6718 61.4285 76.5491 61.2758C76.289 60.9708 75.9981 60.6944 75.681 60.4511C75.0623 59.9839 74.5073 59.4358 74.0304 58.821C73.7967 58.4853 73.6669 58.0867 73.6577 57.6759C73.6556 57.4089 73.7098 57.1444 73.8167 56.9004C73.9236 56.6563 74.0808 56.4383 74.2776 56.2609C74.6908 55.8672 75.2407 55.6551 75.8075 55.6707C76.1953 55.6703 76.5776 55.7645 76.9218 55.9456C77.3629 56.2042 77.7521 56.5447 78.069 56.9492Z" fill="white"/>
<path id="Path 68" d="M79.6719 55.8713H83.9925V57.359H82.5683V63.7979H81.0593V57.359H79.6719V55.8713Z" fill="white"/>
<path id="Path 69" d="M85.7227 55.8713H87.1997V63.7979H85.7227V55.8713Z" fill="white"/>
<path id="Path 70" d="M88.918 55.8713H93.2386V57.359H91.8144V63.7979H90.3054V57.359H88.918V55.8713Z" fill="white"/>
<path id="Path 71" d="M95.0246 55.8713H96.5196V60.9974C96.5023 61.3141 96.5411 61.6314 96.6343 61.9342C96.7105 62.1175 96.8425 62.2712 97.0111 62.3729C97.2034 62.4866 97.4233 62.5433 97.6459 62.5366C97.8845 62.5432 98.1199 62.4797 98.3236 62.3536C98.5013 62.2458 98.6395 62.0822 98.7174 61.8877C98.8092 61.5359 98.8459 61.1717 98.826 60.8084V55.8713H100.321V60.5992C100.343 61.1558 100.299 61.713 100.188 62.2586C100.087 62.5912 99.9135 62.8968 99.6811 63.1531C99.4454 63.4301 99.1501 63.6487 98.818 63.7918C98.4562 63.9366 98.0697 64.007 97.6808 63.999C97.1604 64.0118 96.6472 63.8744 96.2008 63.6028C95.8111 63.3703 95.4987 63.025 95.3037 62.6114C95.0846 61.965 94.9925 61.2814 95.0326 60.5992L95.0246 55.8713Z" fill="white"/>
<path id="Path 72" d="M102.09 55.8713H106.41V57.359H104.986V63.7979H103.477V57.359H102.09V55.8713Z" fill="white"/>
<path id="Path 73" d="M108.254 55.8713H112.521V57.3478H109.73V58.7799H112.521V60.2292H109.73V62.3172H112.521V63.7989H108.254V55.8713Z" fill="white"/>
</g>
<path id="Path 74" fill-rule="evenodd" clip-rule="evenodd" d="M48.0417 28.7519H50.1587C50.2314 27.4451 49.5108 23.9563 50.2165 22.5L50.2563 22.4504C50.4285 22.2249 50.5352 21.9552 50.5646 21.6716C50.5939 21.388 50.5447 21.1017 50.4225 20.8448C50.3004 20.588 50.11 20.3708 49.8728 20.2175C49.6356 20.0643 49.361 19.9811 49.0798 19.9774C48.7986 19.9736 48.5219 20.0494 48.2809 20.1962C48.0398 20.3431 47.8438 20.5551 47.715 20.8086C47.5862 21.0621 47.5295 21.347 47.5515 21.6313C47.5735 21.9156 47.6732 22.188 47.8394 22.4181C48.5161 23.4803 48.3058 27.6452 48.0417 28.7519Z" fill="white"/>
<path id="Path 75" fill-rule="evenodd" clip-rule="evenodd" d="M48.0387 28.7517C47.622 30.9363 46.7482 33.0049 45.4762 34.8181C44.2042 36.6312 42.5636 38.1467 40.665 39.2624C38.7664 40.3781 36.6539 41.068 34.4701 41.2856C32.2862 41.5032 30.0817 41.2434 28.0053 40.5238C27.9887 40.7164 27.9837 40.9098 27.9903 41.1029C28.08 42.3976 28.2886 43.681 28.6133 44.9364C25.1777 38.6703 23.0448 24.3189 28.5953 18.6744C29.4693 17.7997 30.5203 17.1281 31.6756 16.7062C32.8309 16.2842 34.0628 16.1219 35.2861 16.2306C42.8011 16.9664 43.1689 28.8022 35.4854 29.1569C32.8183 29.2803 29.8821 27.641 28.3422 23.4781C27.7521 29.6178 31.8724 33.9323 36.4891 33.9323C38.2547 33.9595 39.9868 33.4427 41.4564 32.4501C42.9261 31.4576 44.064 30.0361 44.7198 28.3737C47.952 20.913 42.0855 12.0758 34.423 12.5255C22.8394 13.2047 19.6809 24.9061 20.3776 35.517C14.2978 24.1451 20.0397 9.98272 33.219 9.99687C34.9631 9.99629 36.695 10.2918 38.3429 10.8711C37.3682 9.75937 6.21866 -2.8486 0.0292161 42.0267C-0.0202312 42.3107 -0.00678475 42.6023 0.0685827 42.8804C0.14395 43.1585 0.279357 43.4162 0.464994 43.6347C0.650631 43.8532 0.881856 44.0271 1.14194 44.1439C1.40202 44.2606 1.68445 44.3173 1.96878 44.3098L3.62926 44.3158C3.63686 44.3147 3.64458 44.3147 3.65218 44.3158C3.90506 44.354 4.14777 44.4434 4.36589 44.5786C4.58401 44.7139 4.77308 44.8922 4.92186 45.103C5.07064 45.3138 5.17607 45.5529 5.23191 45.8058C5.28775 46.0588 5.29284 46.3206 5.24688 46.5757C5.12928 49.1023 5.17014 50.8133 5.1841 53.34C5.19606 55.5129 6.44491 56.3962 8.82102 56.4124L14.7533 56.5044C16.6012 56.6135 16.9022 57.421 16.9371 59.2746C16.959 60.4671 16.967 61.6617 16.9291 62.8533C16.9052 63.6275 17.1454 63.9954 17.9726 63.9913C24.166 63.958 30.2319 63.9479 36.4293 63.9468C37.2097 63.9468 37.5127 63.6437 37.5137 62.8351C37.5137 62.0832 37.5137 59.5707 37.5137 58.9118C37.5287 58.0478 37.6244 57.1872 37.7998 56.3416C38.3878 53.6685 41.4177 50.0756 41.5652 49.9199C43.5211 47.819 45.2539 45.5155 46.7351 43.0474C49.4491 38.7633 50.2175 33.7433 50.1617 28.7476L48.0387 28.7517Z" fill="white"/>
</g>
<path id="Ellipse 25" d="M49.5266 6.69258C51.3492 6.69258 52.8266 5.1944 52.8266 3.34629C52.8266 1.49819 51.3492 0 49.5266 0C47.704 0 46.2266 1.49819 46.2266 3.34629C46.2266 5.1944 47.704 6.69258 49.5266 6.69258Z" fill="#8A15B3"/>
</g>
</svg>

<svg xmlns="http://www.w3.org/2000/svg" xmlns:xlink="http://www.w3.org/1999/xlink" width="114" height="64" fill="none"><path d="M43.707 12.939c0 1.229.481 2.408 1.338 3.277a4.54 4.54 0 0 0 3.231 1.357c.904 0 1.787-.272 2.539-.781a4.62 4.62 0 0 0 1.683-2.08c.346-.847.436-1.779.26-2.677a4.66 4.66 0 0 0-1.251-2.373 4.55 4.55 0 0 0-2.34-1.268 4.51 4.51 0 0 0-2.64.264c-.835.351-1.549.945-2.051 1.707a4.68 4.68 0 0 0-.77 2.575zM55.184 2.606c0 .496.194.971.54 1.322a1.83 1.83 0 0 0 2.608 0c.346-.351.54-.826.54-1.322s-.194-.971-.54-1.322a1.83 1.83 0 0 0-2.608 0c-.346.351-.54.826-.54 1.322z" fill-rule="evenodd" fill="#8a15b3"/><g fill="#fff"><path d="M61.234 36.014h1.578a5.12 5.12 0 0 1 1.847.24c.373.154.688.426.897.776a2.42 2.42 0 0 1 .327 1.285 2.18 2.18 0 0 1-.428 1.38c-.297.374-.703.642-1.161.765a6.55 6.55 0 0 1-1.568.124v3.357h-1.488l-.004-7.927zm1.488 3.099h.473a2.54 2.54 0 0 0 .776-.081.69.69 0 0 0 .343-.268.79.79 0 0 0 .125-.452.73.73 0 0 0-.082-.386c-.062-.118-.155-.217-.269-.285a1.98 1.98 0 0 0-.946-.157h-.421l.001 1.627zm6.995-3.099h1.509l3.007 7.927h-1.546l-.612-1.633h-3.189l-.636 1.633h-1.547l3.014-7.927zm.763 2.101l-1.048 2.722h2.093l-1.044-2.722zm5.008-2.101h1.577a5.15 5.15 0 0 1 1.845.234 1.9 1.9 0 0 1 .884.778 2.41 2.41 0 0 1 .334 1.288 2.22 2.22 0 0 1-.369 1.307c-.281.375-.67.653-1.113.794l1.852 3.524h-1.627l-1.757-3.357h-.137v3.357h-1.488l-.001-7.926zm1.488 3.099h.467c.337.03.675-.035.978-.189a.7.7 0 0 0 .213-.279.73.73 0 0 0 .054-.349.77.77 0 0 0-.133-.451.74.74 0 0 0-.355-.276c-.266-.07-.542-.098-.816-.084h-.408v1.627zm3.954-3.099h4.321v1.487h-1.43v6.439h-1.509v-6.439H80.93v-1.487zm-19.59 9.929h1.577a5.15 5.15 0 0 1 1.845.234 1.9 1.9 0 0 1 .884.778 2.41 2.41 0 0 1 .335 1.288 2.22 2.22 0 0 1-.369 1.307c-.281.375-.67.653-1.113.794l1.852 3.524h-1.627l-1.758-3.357h-.137v3.357h-1.488l-.001-7.926zm1.488 3.099h.466c.337.03.675-.035.978-.189.093-.073.166-.169.213-.279s.065-.229.054-.348c.003-.161-.043-.318-.132-.451a.74.74 0 0 0-.355-.276c-.266-.07-.542-.098-.816-.084h-.408v1.626z"/><use xlink:href="#B"/><path d="M77.312 47.019l-1.102.986a1.58 1.58 0 0 0-.493-.555 1.55 1.55 0 0 0-.689-.264c-.174-.007-.344.049-.479.159a.46.46 0 0 0-.134.158c-.032.062-.05.131-.052.201a.62.62 0 0 0 .134.377c.339.366.703.706 1.091 1.018l1.033.91c.263.255.481.555.642.886a2.24 2.24 0 0 1 .189.924c.008.301-.047.6-.161.878s-.286.528-.503.733c-.473.435-1.096.664-1.734.636-.515.012-1.022-.132-1.455-.414a3.27 3.27 0 0 1-1.061-1.304l1.251-.765c.376.701.808 1.051 1.296 1.051.235.008.464-.073.644-.226a.67.67 0 0 0 .19-.231.68.68 0 0 0 .072-.291c-.007-.197-.077-.386-.199-.539-.26-.305-.551-.581-.868-.825-.619-.467-1.174-1.015-1.651-1.63a2.09 2.09 0 0 1-.373-1.145c-.002-.267.052-.532.159-.776a1.87 1.87 0 0 1 .461-.639c.413-.394.963-.606 1.53-.59.388-.001.77.094 1.114.275a4.07 4.07 0 0 1 1.152 1.004z"/><use xlink:href="#B" x="11.32"/><path d="M86.916 45.943h1.509l3.006 7.927h-1.546l-.611-1.632h-3.189l-.636 1.632h-1.547l3.014-7.927zm.763 2.101l-1.049 2.722h2.093l-1.044-2.722zm5.005-2.101h1.577a5.15 5.15 0 0 1 1.845.234 1.9 1.9 0 0 1 .884.778 2.41 2.41 0 0 1 .335 1.288 2.22 2.22 0 0 1-.369 1.307c-.281.375-.67.653-1.113.794l1.852 3.524h-1.627l-1.757-3.357h-.137v3.357h-1.488l-.002-7.926zm1.488 3.099h.466a1.8 1.8 0 0 0 .978-.189c.093-.073.166-.169.213-.279s.065-.229.054-.348c.003-.161-.043-.318-.133-.451a.74.74 0 0 0-.355-.276c-.266-.07-.542-.098-.816-.084h-.408v1.626zm11.909-1.707l-1.04 1.011c-.297-.35-.664-.633-1.076-.829a3.18 3.18 0 0 0-1.316-.309 2.59 2.59 0 0 0-1.022.195 2.63 2.63 0 0 0-.866.583c-.248.251-.443.55-.574.878a2.68 2.68 0 0 0-.192 1.036 2.86 2.86 0 0 0 .34 1.408 2.46 2.46 0 0 0 .961.965 2.76 2.76 0 0 0 1.381.351c.407.005.811-.079 1.184-.246a4.25 4.25 0 0 0 1.178-.892l1.008 1.067c-.469.494-1.024.897-1.636 1.189a4.41 4.41 0 0 1-1.758.332 4 4 0 0 1-1.611-.275 4.04 4.04 0 0 1-1.373-.898 4.06 4.06 0 0 1-.888-1.38 4.11 4.11 0 0 1-.273-1.624c-.013-.738.169-1.466.529-2.107.363-.624.886-1.137 1.515-1.482a4.22 4.22 0 0 1 2.123-.56 4.45 4.45 0 0 1 1.874.419c.588.275 1.111.675 1.532 1.172l.001-.004zm1.298-1.392h1.509v2.991h2.609v-2.991h1.504v7.927h-1.504v-3.476h-2.609v3.476h-1.509v-7.927zm-46.246 9.928h1.477v7.927h-1.477v-7.927zm3.976 0h1.427l3.345 5.216v-5.216h1.488v7.927h-1.431l-3.341-5.2v5.2h-1.488v-7.927zm12.96 1.078l-1.102.986a1.58 1.58 0 0 0-.493-.555 1.55 1.55 0 0 0-.689-.264.71.71 0 0 0-.479.159c-.056.042-.102.096-.134.158a.47.47 0 0 0-.053.201.62.62 0 0 0 .134.377 10.25 10.25 0 0 0 1.096 1.019l1.033.91a3.15 3.15 0 0 1 .642.886 2.24 2.24 0 0 1 .189.924 2.15 2.15 0 0 1-.161.878c-.115.278-.286.528-.503.733-.473.435-1.096.664-1.734.636a2.55 2.55 0 0 1-1.455-.414 3.27 3.27 0 0 1-1.062-1.304l1.251-.765c.376.701.808 1.051 1.296 1.051a.95.95 0 0 0 .644-.226.67.67 0 0 0 .189-.231.68.68 0 0 0 .072-.291.91.91 0 0 0-.199-.539 5.74 5.74 0 0 0-.868-.825c-.619-.467-1.174-1.015-1.651-1.63-.234-.336-.364-.734-.373-1.145a1.9 1.9 0 0 1 .159-.776 1.87 1.87 0 0 1 .461-.639 2.13 2.13 0 0 1 1.53-.59 2.39 2.39 0 0 1 1.114.275 4.08 4.08 0 0 1 1.147 1.004zm1.603-1.078h4.321v1.488h-1.424v6.439H81.06v-6.439h-1.387v-1.488zm6.051 0H87.2v7.927h-1.477v-7.927zm3.195 0h4.321v1.488h-1.424v6.439h-1.509v-6.439h-1.387v-1.488zm6.107 0h1.495v5.126a2.7 2.7 0 0 0 .115.937.93.93 0 0 0 .377.439 1.18 1.18 0 0 0 .635.164 1.22 1.22 0 0 0 .678-.183.96.96 0 0 0 .394-.466c.092-.352.129-.716.109-1.079v-4.937h1.495V60.6a6.94 6.94 0 0 1-.133 1.659 2.35 2.35 0 0 1-.507.895 2.36 2.36 0 0 1-.863.639 2.9 2.9 0 0 1-1.137.207 2.72 2.72 0 0 1-1.48-.396 2.29 2.29 0 0 1-.897-.991 5.3 5.3 0 0 1-.271-2.012l-.008-4.728zm7.065 0h4.32v1.488h-1.424v6.439h-1.509v-6.439h-1.387v-1.488z"/><use xlink:href="#B" x="40.695" y="9.928"/><g fill-rule="evenodd"><path d="M48.042 28.752h2.117c.073-1.307-.648-4.796.058-6.252l.04-.05c.172-.225.279-.495.308-.779s-.02-.57-.142-.827-.312-.474-.55-.627a1.5 1.5 0 0 0-.793-.24c-.281-.004-.558.072-.799.219s-.437.359-.566.612-.186.538-.164.823a1.55 1.55 0 0 0 .288.787c.677 1.062.466 5.227.202 6.334z"/><path d="M48.039 28.752a15.68 15.68 0 0 1-2.562 6.066 15.43 15.43 0 0 1-4.811 4.444 15.2 15.2 0 0 1-6.195 2.023 15.15 15.15 0 0 1-6.465-.762c-.017.193-.022.386-.015.579.09 1.295.298 2.578.623 3.834-3.436-6.266-5.568-20.617-.018-26.262.874-.875 1.925-1.546 3.08-1.968s2.387-.584 3.61-.476c7.515.736 7.883 12.572.199 12.926-2.667.123-5.603-1.516-7.143-5.679-.59 6.14 3.53 10.454 8.147 10.454 1.766.027 3.498-.49 4.967-1.482a8.82 8.82 0 0 0 3.263-4.076c3.232-7.461-2.634-16.298-10.297-15.848-11.584.679-14.742 12.381-14.045 22.992-6.08-11.372-.338-25.534 12.841-25.52a15.43 15.43 0 0 1 5.124.874C37.368 9.759 6.219-2.849.029 42.027a1.97 1.97 0 0 0 .039.854c.075.278.211.536.396.754a1.92 1.92 0 0 0 .677.509c.26.117.543.173.827.166l1.66.006a.08.08 0 0 1 .023 0 1.89 1.89 0 0 1 .714.263 1.92 1.92 0 0 1 .556.524c.149.211.254.45.31.703a1.96 1.96 0 0 1 .015.77c-.118 2.527-.077 4.238-.063 6.764.012 2.173 1.261 3.056 3.637 3.072l5.932.092c1.848.109 2.149.917 2.184 2.77.022 1.193.03 2.387-.008 3.579-.024.774.216 1.142 1.044 1.138l18.457-.044c.78 0 1.083-.303 1.084-1.112v-3.923a13.84 13.84 0 0 1 .286-2.57c.588-2.673 3.618-6.266 3.765-6.422 1.956-2.101 3.689-4.404 5.17-6.872 2.714-4.284 3.482-9.304 3.427-14.3l-2.123.004z"/></g></g><path d="M49.527 6.693c1.823 0 3.3-1.498 3.3-3.346S51.349 0 49.527 0s-3.3 1.498-3.3 3.346 1.477 3.346 3.3 3.346z" fill="#8a15b3"/><defs ><path id="B" d="M67.559 45.943h4.267v1.477h-2.791v1.432h2.791v1.449h-2.791v2.088h2.791v1.482h-4.267v-7.928z"/></defs></svg>
